X:1
T:Title
%%score ( 1 2 ) { 3 | 4 }
L:1/8
Q:1/4=107
M:4/4
K:E
V:1 treble nm="Grand Piano, Soprano"
V:2 treble 
V:3 bass nm="Choir Pad, None Can Help Like Jesus"
V:4 bass 
V:1
 [EG]3 [EG] [EA]2 [EG]2 | [E=G]2 [E^G]2 E4 | [DF]3 [DF] E2 [DF]2 | [EG]4 [EB]4 | %4
w: By~William~James~Kirkpatrick * * *||||
 [EG]3 [EG] [EA]2 [EG]2 | [E=G]2 [E^G]2 E4 | [DF]3 [DF] [EG]2 [DF]2 | D2 z2 z4 | %8
w: ||||
 [GB]3 [GB] [Ac]2 [GB]2 | [^E^A]2 [GB]2 [=EG]4 | [FA]3 [FA] [GB]2 [FA]2 | [^EG]2 [FA]2 [DF]4 | %12
w: ||||
 [EG]3 [EG] [B,F]2 B,=D | [CE]4 [EA]4 | [EG]2 z2 [B,E]2 E2 | D2 z2 z4 | z8 |] %17
w: |||||
V:2
 x8 | x8 | x8 | x8 | x8 | x8 | x8 | F2- [B,F]2 [B,E]4 | x8 | x8 | x8 | x8 | z4 z2 E2 | x8 | x8 | %15
 F2- [B,F]2 [B,E]4- | [B,E]4 z4 |] %17
V:3
 B,3 B, C2 B,2 | ^A,2 B,2 G,4 | A,3 A, G,2 B,2 | B,4 G,4 | B,3 B, C2 B,2 | ^A,2 B,2 G,4 | %6
 A,3 A, B,2 A,2 | A,4 G,4 | E3 E E2 E2 | E2 E2[K:bass] B,4 | B,3 B, B,2 B,2 | B,2 B,2 B,4 | %12
 B,3 B, A,2 G,2 | A,4 C4 | B,2 z2 G,2 G,2 | A,4 G,4- | G,4 z4 |] %17
V:4
 E,3 E, E,2 E,2 | E,2 E,2 E,4 | B,,3 B,, B,,2 B,,2 | E,4 E,4 | E,3 E, E,2 E,2 | E,2 E,2 E,4 | %6
 B,,3 B,, B,,2 B,,2 | B,,4 E,4 | E,3 E, E,2 E,2 | E,2 E,2 E,4 | B,,3 B,, B,,2 B,,2 | %11
 B,,2 B,,2 B,,4 | E,3 E, E,2 E,2 | A,,4 A,,4 | B,,2 z2 B,,2 B,,2 | B,,4 [E,,E,]4- | [E,,E,]4 z4 |] %17

